X:1
T:Title
%%score { ( 1 4 ) | ( 2 3 ) }
L:1/8
M:2/4
K:F
V:1 treble nm="Grand Piano"
V:4 treble 
V:2 bass 
V:3 bass 
V:1
 z2[Q:1/4=100] A>G | F>E F>G | A>G F>E | [F,B,D]2 [A,C]2- | [A,C]2[K:treble] [FB]>[FA] | G>^F G>A | %6
 c>B A>G | [CFA]4- | [CFA]2 D>^C | D>E F>E | F>G A>B | [FA]2 [EG]2- | [EG]2 A>B | [Ec]2 [A,EA]2 | %14
 [B,D]->[B,DB] AG | [CF]4- | [CF]2 z2 | E,4- | E,2- [E,-B]>[E,B] | A>G F>E | F2 C>C | E,4- | %22
 E,2- [E,-B]>[E,B] | A>G F>E | F2 G>G | [EG]4- | [EG]2 [EA]2 | c2 A>G | .F2 .F2 | A>G F>E | %30
 [A,F]4 | A3 G | BA G^F | [CG]4 | B2 AB | cB AE | D-[D-B] [D-A][DG] | F4 | A3 F | A>G F>E | %40
 [A,F]4 | A3 G | BA G^F | [CG]4 | B2 AB | cB AE | D-[D-B] [D-A][DG] | F4- |[M:1/4] F2 |] %49
V:2
 z2 [C,B,]2 | C2 C2 | [F,CF]2 [F,A,C]2 | B,,2 F,,2 | z2 D>C | C,2 [C,E,C]2 | [C,G,]2 [C,E,C]2 | %7
 F,2 C,2 | F,2 D,>^C, | [D,F,A,]2 [D,A,D]2 | [F,A,C]2 [F,CF]2 | [C,C]2 [C,C]2- | [C,C]2 [C,C]2 | %13
 z z/[K:treble] B/[K:bass] z z/ E/ | B,,2 [C,E,B,]2 | F,2 C,2 | F,2 C,>C, | C,2 G,,2 | z2 D>D | %19
 [F,C]2 [C,A,]2 | [F,A,]2 C,>C, | C,2 G,,2 | z2 D>D | [F,C]2 [C,A,]2 | [F,A,]2 G,>G, | C,2 E,2 | %26
 G,2 z z/[K:treble] B/ | z z/ B/[K:bass] E,2 | .[F,A,C]2 .[F,A,C]2 | C2- [C,C]2 | F,2 C,2 | %31
 F,2 C,2 | E4 | E,2 C,2 | G,2 C,2 | [A,,A,]2 [A,,A,]2 | [B,,B,]2 [B,,B,]2 | F,2 z G | F,2 C,2 | %39
 C2- [C,C]2 | F,2 C,2 | F,2 C,2 | E4 | E,2 C,2 | G,2 C,2 | [A,,A,]2 [A,,A,]2 | [B,,B,]2 [B,,B,]2 | %47
 [F,A,C]4- |[M:1/4] [F,A,C]2 |] %49
V:3
 x4 | [F,A,]4 | x4 | x4 | C,4 | x4 | x4 | x4 | x4 | x4 | x4 | x4 | x4 | %13
 [A,,A,]2[K:treble][K:bass] C,2 | x4 | x4 | x4 | x4 | C,4 | x4 | x4 | x4 | C,4 | x4 | x4 | x4 | %26
 z2 C,2[K:treble] | C,2[K:bass] z2 | x4 | F,2 z2 | x4 | x4 | G,2 C,2 | x4 | x4 | x4 | x4 | z2 C,2 | %38
 x4 | F,2 z2 | x4 | x4 | G,2 C,2 | x4 | x4 | x4 | x4 | x4 |[M:1/4] x2 |] %49
V:4
 x4 | x4 | x4 | z2 F,2- | F,4[K:treble] | E2 z2 | E2 z2 | x4 | x4 | x4 | x4 | x4 | z2 E2 | x4 | %14
 F2 z2 | A,4- | A,2- [A,-C]>[A,C] | [G,C]4- | [G,C]2 z2 | x4 | x4 | [G,C]4- | [G,C]2 z2 | x4 | x4 | %25
 C4- | C4 | [CE]4 | x4 | x4 | x4 | x4 | x4 | x4 | x4 | E4 | .F2 z2 | x4 | x4 | x4 | x4 | x4 | x4 | %43
 x4 | x4 | E4 | .F2 z2 | x4 |[M:1/4] x2 |] %49

